X: 1
T:Four Mile Stone
C:Arthur Darley
R:reel
Z:id:hn-reel-701
M:C|
K:Ador
G,|:A,2EA, ~A,2EA,|~A,2GE DB,A,B,|G,2B,G, DG,B,G,|G,B,~B,2 G,B,DB,|
A,2EA, ~A,2AB|{d}BABG AGAB|{d}BABG AGEA|1 GEDB, A,3G,:|2 GEDB, A,3z||
|:EABA eABA|~E3D EDB,A,|G,2B,G, DG,B,G,|(3ded (3BdB (3GAG (3FGF|
EA~A2 ABce|AGED E2AB|{d}BABG AGEA|1 GEDB, A,3z:|2 GEDB, A,3||
